X:1
T:Title
%%score 1 2
L:1/8
Q:1/4=53
M:6/8
K:F
V:1 treble nm="Strings 1, Treble"
V:2 bass nm="Strings 1, Bass"
V:1
 [FA][FA][FA] [FB]2 [FA] | [FA]2 [EG] [DF][DF][DF] | [EG]2 [EG] [Ec]2 [GB] | [FA]3- [FA]2 [FA] | %4
w: 1.~Two~ lit tle~ hands~ are~|sweet ly~ fold ed~ Up|on~ a~ si lent~|breast:~ * The~|
 [Fc]2 [Fc] [FA]2 [CG] | [DF]2 [EA] [FB][FB][Q:1/4=53][FB][Q:1/4=12] | %6
w: lit tle~ heart~ with|in~ has~ num bered~ Its~|
 [FA]2 [FA][Q:1/4=52] [EG]2 [GB][Q:1/4=51][Q:1/4=50][Q:1/4=49][Q:1/4=48][Q:1/4=47][Q:1/4=46][Q:1/4=45][Q:1/4=44][Q:1/4=43][Q:1/4=42][Q:1/4=12][Q:1/4=41][Q:1/4=40][Q:1/4=39] | %7
w: throbs~ and~ gone~ to~|
 [FA]6 |[Q:1/4=53] [FA] [FA]2- [FA]2 z | [FB] [FB]2- [FB]2 z | [Ec]3 [GB]3 | [FA]6 | %12
w: rest.~|||||
 [EG] [EG]2- [EG]2 z | [EG] [EG]2- [EG]2 z | [FA]3- [FA]2 [CG] | [CG] [CF]2- [CF]2 z |] %16
w: ||||
V:2
 [F,C][F,C][F,C] [F,D]2 [F,C] | [C,C]2 [C,C] [D,=B,][D,B,][D,B,] | [C,C]2 [C,C] [C,C]2 [E,C] | %3
 [F,C]3- [F,C]2 [F,C] | [F,A,]2 [F,A,] [F,C]2 [E,C] | [D,=B,]2 [C,C] [B,,D][B,,D][B,,D] | %6
 [C,C]2 [C,C] [C,C]2 [C,C] | [F,C]6 | [F,C] [F,C]2- [F,C]2 z | [B,,D] [B,,D]2- [B,,D]2 z | %10
 [A,,C]3 [C,C]3 | [F,C]6 | [C,C] [C,C]2- [C,C]2 z | [C,C] [C,C]2- [C,C]2 z | %14
 [C,C]3- [C,C]2 [E,B,] | [F,B,] [F,A,]2- [F,A,]2 z |] %16

